Origami/64x64/apps/kfontview.svg

<svg width="64" height="64" version="1" xmlns="http://www.w3.org/2000/svg">
 <path d="m4 56v2c0 1.662 1.338 3 3 3h50c1.662 0 3-1.338 3-3v-2c0 1.662-1.338 3-3 3h-50c-1.662 0-3-1.338-3-3z" style="opacity:.2"/>
 <rect transform="matrix(0,-1,-1,0,0,0)" x="-60" y="-60" width="56" height="56" rx="3" ry="3" style="fill:#c28f42"/>
 <path d="m7 4c-1.662 0-3 1.338-3 3v1c0-1.662 1.338-3 3-3h50c1.662 0 3 1.338 3 3v-1c0-1.662-1.338-3-3-3h-50z" style="fill:#ffffff;opacity:.1"/>
 <g transform="matrix(1.42286,0,0,1.2637,1.16276e-7,2.615)" style="opacity:.2">
  <path d="m15.462 11.383h15.462v4.7479h-11.245v6.3306h8.4337v4.7479h-8.4337v11.079h-4.2169z"/>
 </g>
 <g transform="matrix(1.42286,0,0,1.2637,1.16276e-7,1.61538)" style="fill:#ffffff">
  <path d="m15.462 11.383h15.462v4.7479h-11.245v6.3306h8.4337v4.7479h-8.4337v11.079h-4.2169z"/>
 </g>
</svg>

<svg xmlns="http://www.w3.org/2000/svg" width="64" height="64" version="1">
 <path style="opacity:0.2" d="m 4,56 0,2 c 0,1.662 1.338,3 3,3 l 50,0 c 1.662,0 3,-1.338 3,-3 l 0,-2 c 0,1.662 -1.338,3 -3,3 L 7,59 C 5.338,59 4,57.662 4,56 Z"/>
 <rect style="fill:#c28f42" width="56" height="56" x="-60" y="-60" rx="3" ry="3" transform="matrix(0,-1,-1,0,0,0)"/>
 <path style="opacity:0.1;fill:#ffffff" d="M 7 4 C 5.338 4 4 5.338 4 7 L 4 8 C 4 6.338 5.338 5 7 5 L 57 5 C 58.662 5 60 6.338 60 8 L 60 7 C 60 5.338 58.662 4 57 4 L 7 4 z"/>
 <g style="opacity:0.2" transform="matrix(1.42286,0,0,1.2637,1.16276e-7,2.615)">
  <path d="m 15.462,11.383 15.462,0 0,4.7479 -11.245,0 0,6.3306 8.4337,0 0,4.7479 -8.4337,0 0,11.079 -4.2169,0 z"/>
 </g>
 <g style="fill:#ffffff" transform="matrix(1.42286,0,0,1.2637,1.16276e-7,1.61538)">
  <path d="m 15.462,11.383 15.462,0 0,4.7479 -11.245,0 0,6.3306 8.4337,0 0,4.7479 -8.4337,0 0,11.079 -4.2169,0 z"/>
 </g>
</svg>
